X:3101
T:Cliffs of Moher, The
S:as played in Madison, Wisconsin
N:transcribed by Alan Ng
M:6/8
Z:transcribed by Alan Ng agng@students.wisc.edu Oct. 28, 1998 id:ng-jigs-21
R:jig
K:ADor
E:10
aga bag|eaf ged|c2 A BAG|EFG Ace|aga bag|eaf ged|c2 A BAG|EAA A3:|*
efe dBA|efe dBA|GAB dBA|GAB dBd|efe dBA|efe dBA|GAB dBG|EFG A3|\
efe dBA|efe dBA|GAB dBA|GAB dBd|ege ded|~c3 ~B3|EGA BAG|EDB, A,3||**


